X: 34361
T: Reunion
R: polka
M: 2/4
K: Gmajor
|:d2 dB|AG GD|E/D/G E/D/G|E/G/A/B/ AG|
d2 dB|AG GD|E/D/G E/D/G|EB AG:|
|:AA/B/ dB|AB G2|AA/B/ dB|ed B/A/G|
AA/B/ dB|AG GD|E/D/G E/D/G|EB AG:|

